dist/assets/img/stages/3.svg

<svg width="218" height="422" viewBox="0 0 218 422" fill="none" xmlns="http://www.w3.org/2000/svg">
<path d="M123.879 172.096C154.19 174.152 177.273 183.404 193.128 199.853C209.45 215.891 217.61 235.012 217.61 257.218C217.61 277.779 210.149 298.546 195.227 319.518C180.771 340.902 158.62 360.64 128.775 378.734C98.9307 397.239 62.0911 411.631 18.2566 421.912C16.3913 422.323 14.7592 421.295 13.3602 418.828C12.4275 416.772 12.8939 415.538 14.7592 415.127C71.6507 400.734 112.454 379.351 137.169 350.976C161.884 322.602 174.242 293.611 174.242 264.003C174.242 242.209 167.947 223.704 155.356 208.489C142.765 192.862 122.713 185.049 95.2001 185.049C82.143 185.049 70.2517 186.283 59.5263 188.75C58.1273 189.161 56.9615 188.133 56.0289 185.666C55.0962 183.199 55.5625 181.759 57.4278 181.348C94.7338 173.124 120.848 161.61 135.77 146.806C151.159 132.002 158.853 112.057 158.853 86.9731C158.853 66.0008 153.491 49.3464 142.765 37.0098C132.04 24.6732 115.485 18.5049 93.1016 18.5049C72.5834 18.5049 55.3294 24.4676 41.3396 36.393C27.3499 48.3184 16.3913 67.2345 8.46379 93.1414C7.99746 93.5526 7.06481 93.7582 5.66584 93.7582C1.46892 93.7582 -0.396376 92.9358 0.0699489 91.2909L25.9509 1.23367C26.8836 0.411227 27.8162 0 28.7489 0C30.1479 0 31.5468 0.411227 32.9458 1.23367C34.3448 1.64488 34.8111 2.05609 34.3448 2.46731C33.4121 5.75707 32.9458 8.01881 32.9458 9.25247C32.9458 16.2432 36.9096 19.7386 44.8371 19.7386C49.9666 19.7386 56.9615 18.0937 65.8217 14.8039C75.6145 11.9254 84.2415 9.86928 91.7027 8.63562C99.1638 6.99073 107.325 6.16831 116.185 6.16831C141.366 6.16831 161.185 13.1591 175.641 27.1406C190.097 40.7108 197.325 57.1596 197.325 76.487C197.325 96.2255 190.797 114.936 177.74 132.618C164.682 150.301 146.729 163.46 123.879 172.096Z" fill="#FF3D00" fill-opacity="0.2"/>
</svg>

<svg width="218" height="422" viewBox="0 0 218 422" fill="none" xmlns="http://www.w3.org/2000/svg"><path d="M123.879 172.096c30.311 2.056 53.394 11.308 69.249 27.757 16.322 16.038 24.482 35.159 24.482 57.365 0 20.561-7.461 41.328-22.383 62.3-14.456 21.384-36.607 41.122-66.452 59.216-29.844 18.505-66.684 32.897-110.518 43.178-1.866.411-3.498-.617-4.897-3.084-.932-2.056-.466-3.29 1.4-3.701 56.89-14.393 97.694-35.776 122.409-64.151 24.715-28.374 37.073-57.365 37.073-86.973 0-21.794-6.295-40.299-18.886-55.514-12.591-15.627-32.643-23.44-60.156-23.44-13.057 0-24.948 1.234-35.674 3.701-1.399.411-2.565-.617-3.497-3.084-.933-2.467-.467-3.907 1.399-4.318 37.306-8.224 63.42-19.738 78.342-34.542 15.389-14.804 23.083-34.749 23.083-59.833 0-20.972-5.362-37.627-16.088-49.963-10.725-12.337-27.28-18.505-49.663-18.505-20.519 0-37.773 5.963-51.762 17.888C27.35 48.318 16.39 67.234 8.464 93.141c-.467.412-1.4.617-2.798.617-4.197 0-6.062-.822-5.596-2.467L25.95 1.234C26.885.41 27.817 0 28.75 0c1.399 0 2.798.411 4.197 1.234 1.399.41 1.865.822 1.399 1.233-.933 3.29-1.4 5.552-1.4 6.785 0 6.991 3.965 10.487 11.892 10.487 5.13 0 12.124-1.645 20.985-4.935 9.793-2.879 18.42-4.935 25.88-6.168 7.462-1.645 15.623-2.468 24.483-2.468 25.181 0 45 6.991 59.456 20.973 14.456 13.57 21.684 30.019 21.684 49.346 0 19.739-6.528 38.449-19.585 56.131-13.058 17.683-31.011 30.842-53.861 39.478z" fill="#FF3D00" fill-opacity=".2"/></svg>
